client/data/interface-icons/edit.svg

<?xml version="1.0"?>
<svg xmlns="http://www.w3.org/2000/svg" xmlns:lc="http://www.librecad.org" xmlns:xlink="http://www.w3.org/1999/xlink" width="282.84271247mm" height="282.84271247mm" viewBox="-5 -5 292.84271247 292.84271247">
    <g lc:layername="0" lc:is_locked="false" lc:is_construction="false" fill="none" stroke="white" stroke-width="1">
        <circle cx="141.42135624" cy="141.42135624" r="141.42135624" stroke-width="5"/>
        <path fill="white" d="M61.42135624,181.42135624 L171.42135624,71.42135624 L211.42135624,111.42135624 L101.42135624,221.42135624 L61.42135624,221.42135624 L61.42135624,181.42135624 Z "/>
        <path fill="white" d="M231.42135624,71.42135624 L211.42135624,51.42135624 A14.14213562,14.14213562 0 0,0 191.42135624,51.42135624 L181.42135624,61.42135624 L221.42135624,101.42135624 L231.42135624,91.42135624 A14.14213562,14.14213562 0 0,0 231.42135624,71.42135624 Z "/>
    </g>
</svg>

<?xml version="1.0" encoding="UTF-8" standalone="no"?>
<svg
   xmlns:dc="http://purl.org/dc/elements/1.1/"
   xmlns:cc="http://creativecommons.org/ns#"
   xmlns:rdf="http://www.w3.org/1999/02/22-rdf-syntax-ns#"
   xmlns:svg="http://www.w3.org/2000/svg"
   xmlns="http://www.w3.org/2000/svg"
   xmlns:sodipodi="http://sodipodi.sourceforge.net/DTD/sodipodi-0.dtd"
   xmlns:inkscape="http://www.inkscape.org/namespaces/inkscape"
   width="282.84271247mm"
   height="282.84271247mm"
   viewBox="-5 -5 292.84271247 292.84271247"
   version="1.1"
   id="svg10"
   sodipodi:docname="edit.svg"
   inkscape:version="0.92.2 (5c3e80d, 2017-08-06)">
  <metadata
     id="metadata16">
    <rdf:RDF>
      <cc:Work
         rdf:about="">
        <dc:format>image/svg+xml</dc:format>
        <dc:type
           rdf:resource="http://purl.org/dc/dcmitype/StillImage" />
      </cc:Work>
    </rdf:RDF>
  </metadata>
  <defs
     id="defs14" />
  <sodipodi:namedview
     pagecolor="#ffffff"
     bordercolor="#666666"
     borderopacity="1"
     objecttolerance="10"
     gridtolerance="10"
     guidetolerance="10"
     inkscape:pageopacity="0"
     inkscape:pageshadow="2"
     inkscape:window-width="1920"
     inkscape:window-height="1017"
     id="namedview12"
     showgrid="false"
     inkscape:zoom="0.62441667"
     inkscape:cx="415.34872"
     inkscape:cy="544.66111"
     inkscape:window-x="-8"
     inkscape:window-y="-8"
     inkscape:window-maximized="1"
     inkscape:current-layer="svg10" />
  <circle
     style="fill:none;stroke:#ffffff;stroke-width:5"
     id="circle2"
     r="141.42136"
     cy="141.42136"
     cx="141.42136" />
  <path
     style="fill:#ffe680;stroke:#ffe680;stroke-width:1;stroke-opacity:1"
     inkscape:connector-curvature="0"
     id="path4"
     d="M 61.421356,181.42136 171.42136,71.421356 l 40,40.000004 -110,110 H 61.421356 Z" />
  <path
     style="fill:#ffaaee;stroke:#ffaaee;stroke-width:1;stroke-opacity:1"
     inkscape:connector-curvature="0"
     id="path6"
     d="m 231.42136,71.421356 -20,-20 a 14.142136,14.142136 0 0 0 -20,0 l -10,10 40,40.000004 10,-10.000004 a 14.142136,14.142136 0 0 0 0,-20 z" />
</svg>
